X: 13799
T: Four Courts
R: reel
M: 4/4
K: Amajor
|:(c2A)(c B2)A(d|c2) A(c Bc)dB|(c2A)(c B2)A(c|d2)f(d Bc)dB:|
|:cee(g f2)d(f|e2)c(A Bc)dB|ceeg (3fga e(c|d2)f(d Bc)dB:|
(a2e)(g a2)e(g|a2)e(c Bc)dB|(a2e)(g a2)ec|d2f(d Bc)dB|
(agb)(g ag)b(g|ag)e(c Bc)dB|(agb)(g ag)e(c|d2)f(d Bc)dB||
("4"eAcA) ("4"eAcA)|(eAc)(A Bc)dB|(eAcA) (eAcA)|(d2f)(d Bc)dB|
(eAcA) (eAcA)|(eAc)(A Bc)dB|(eAcA) (eA)c(A|d2)f(d Bc)dB||

